svg/fluentui-system-icons/ic_fluent_arrow_trending_wrench_20_filled.svg

<svg width="20" height="20" viewBox="0 0 20 20" fill="none" xmlns="http://www.w3.org/2000/svg">
<path d="M16.75 3C16.9489 3 17.1397 3.07902 17.2803 3.21967C17.421 3.36032 17.5 3.55109 17.5 3.75V8.25C17.5 8.5136 17.364 8.74544 17.1584 8.87919C16.9877 8.41745 16.5738 8.04586 16.0083 7.98L16 7.97904V5.56066L11.7803 9.78033C11.4874 10.0732 11.0126 10.0732 10.7197 9.78035L8.99989 8.06066L4.28034 12.7803C3.98745 13.0732 3.51257 13.0732 3.21968 12.7803C2.92678 12.4874 2.92677 12.0126 3.21966 11.7197L8.46953 6.46969C8.76241 6.1768 9.23728 6.17679 9.53017 6.46967L11.25 8.18936L14.9393 4.50001L12.2499 4.50001C11.8357 4.50001 11.4999 4.16423 11.4999 3.75002C11.4999 3.3358 11.8356 3.00001 12.2499 3.00001L16.75 3ZM16.102 9.71174C16.3618 9.45202 16.2574 9.01584 15.8925 8.97335C14.8665 8.85386 13.7977 9.1877 13.0105 9.97486C12.0232 10.9621 11.7491 12.3924 12.188 13.6258L9.47494 16.3388C8.88916 16.9246 8.88916 17.8744 9.47494 18.4602C10.0607 19.0459 11.0105 19.0459 11.5963 18.4602L14.3093 15.7471C15.5427 16.186 16.973 15.9119 17.9602 14.9246C18.7474 14.1374 19.0812 13.0686 18.9617 12.0426C18.9193 11.6777 18.4831 11.5733 18.2234 11.8331L17.2531 12.8033C16.6673 13.3891 15.7176 13.3891 15.1318 12.8033C14.546 12.2175 14.546 11.2677 15.1318 10.682L16.102 9.71174Z" fill="#212121"/>
</svg>

<svg xmlns="http://www.w3.org/2000/svg" width="20" height="20"><path d="M16.75 3a.75.75 0 0 1 .75.75v4.5a.75.75 0 0 1-.342.63 1.383 1.383 0 0 0-1.15-.9L16 7.979V5.561l-4.22 4.22a.75.75 0 0 1-1.06 0L9 8.06l-4.72 4.72a.75.75 0 0 1-1.06-1.061l5.25-5.25a.75.75 0 0 1 1.06 0l1.72 1.72 3.69-3.69h-2.69a.75.75 0 0 1 0-1.5h4.5Zm-.648 6.712c.26-.26.155-.696-.21-.739a3.5 3.5 0 0 0-3.704 4.652L9.475 16.34a1.5 1.5 0 0 0 2.121 2.121l2.713-2.713a3.5 3.5 0 0 0 4.653-3.704c-.043-.365-.479-.47-.739-.21l-.97.97a1.5 1.5 0 1 1-2.121-2.121l.97-.97Z"/></svg>
